svgs/light/bowl-chopsticks.svg

<svg xmlns="http://www.w3.org/2000/svg" viewBox="0 0 512 512"><!--! Font Awesome Pro 6.3.0 by @fontawesome - https://fontawesome.com License - https://fontawesome.com/license (Commercial License) Copyright 2023 Fonticons, Inc. --><path d="M19.14 127.7C10.47 129.4 2.043 123.8 .3101 115.1C-1.423 106.5 4.196 98.05 12.86 96.31L492.9 .3138C501.5-1.419 509.1 4.2 511.7 12.87C513.4 21.53 507.8 29.96 499.1 31.69L19.14 127.7zM511.1 142.9C512.6 151.8 505.9 159.4 497.1 159.1L17.06 191.1C8.247 192.6 .623 185.9 .0352 177.1C-.5526 168.3 6.118 160.6 14.94 160L494.9 128C503.8 127.5 511.4 134.1 511.1 142.9zM2.989 274.8C1.367 247.3 23.29 224 50.91 224H461.1C488.7 224 510.6 247.3 509 274.8L508.4 285.2C503.5 369.3 452.5 440.3 380.9 474.4C373.3 496.3 352.5 512 328 512H183.1C159.5 512 138.7 496.3 131.1 474.4C59.47 440.3 8.545 369.3 3.596 285.2L2.989 274.8zM144.8 445.5C152.6 449.2 158.5 455.8 161.3 463.9C164.6 473.3 173.6 480 183.1 480H328C338.4 480 347.4 473.3 350.7 463.9C353.5 455.8 359.4 449.2 367.2 445.5C428.6 416.2 472.2 355.3 476.5 283.3L477.1 272.9C477.6 263.8 470.3 256 461.1 256H50.91C41.7 256 34.39 263.8 34.93 272.9L35.54 283.3C39.78 355.3 83.39 416.2 144.8 445.5H144.8z"/></svg>

<svg xmlns="http://www.w3.org/2000/svg" viewBox="0 0 512 512"><!--! Font Awesome Pro 6.4.0 by @fontawesome - https://fontawesome.com License - https://fontawesome.com/license (Commercial License) Copyright 2023 Fonticons, Inc. --><path d="M499.1 31.7l-480 96C10.5 129.4 2 123.8 .3 115.1S4.2 98 12.9 96.3l480-96c8.7-1.7 17.1 3.9 18.8 12.6s-3.9 17.1-12.6 18.8zM512 142.9c.6 8.8-6.1 16.4-14.9 17l-480 32c-8.8 .6-16.4-6.1-17-14.9s6.1-16.4 14.9-17l480-32c8.8-.6 16.4 6.1 17 14.9zM144.8 445.5c7.7 3.7 13.7 10.3 16.5 18.4c3.3 9.4 12.2 16.1 22.7 16.1H328c10.4 0 19.4-6.7 22.7-16.1c2.8-8.1 8.7-14.7 16.5-18.4c61.4-29.2 105-90.1 109.3-162.2l.6-10.3c.5-9.2-6.8-16.9-16-16.9H50.9c-9.2 0-16.5 7.7-16 16.9l.6 10.3c4.2 72.1 47.8 133 109.3 162.2zM3 274.8C1.4 247.3 23.3 224 50.9 224H461.1c27.6 0 49.5 23.2 47.9 50.8l-.6 10.3c-5 84.1-55.9 155.1-127.5 189.2C373.3 496.3 352.5 512 328 512H184c-24.5 0-45.3-15.7-52.9-37.6C59.5 440.3 8.5 369.3 3.6 285.2L3 274.8z"/></svg>
